X: 126
T:Missa Quem dicunt homines / Kyrie
N: Derived from Jos1003a-Missa_Quem_dicunt_homines-Kyrie.krn
C: Josquin des Prez
%%abc-version 2.0
%%abcx-abcm2ps-target-version 5.9.1 (29 Sep 2008)
%%abc-creator hum2abc beta
%%abcx-conversion-date 2019/02/12 16:15:44
%%abc-edited-by Jesse Rodin
%%abc-edited-by Rob Wegman; Jesse Rodin (May 2013)
%%abcx-initial-encoding-date 2013/05/08/
%%humdrum-veritas 3852438161
%%humdrum-veritas-data 685224897
%%linebreak <none>
%%barnumbers 0
L: 1/4
M: 2/1
Q: 1/2=120
%%staves [1 2 3 4]
V: 1 clef=treble
V: 2 clef=treble-8
V: 3 clef=treble-8
V: 4 clef=bass
K: C
[V:1] G4G2G2 | 
[V:2] z8 | 
[V:3] z8 | 
[V:4] z8 | 
[V:1] A2B2G4 | 
[V:2] z8 | 
[V:3] z8 | 
[V:4] z8 | 
[V:1] z2G2c3B | 
[V:2] c4c2c2 | 
[V:3] z8 | 
[V:4] z8 | 
[V:1] A2G3FE2- | 
[V:2] d2e2c4 | 
[V:3] z8 | 
[V:4] z8 | 
[V:1] E2D2E4- | 
[V:2] z2G2c3B | 
[V:3] z8 | 
[V:4] z4C,4 | 
[V:1] E4z4 | 
[V:2] AGg2f2e2- | 
[V:3] z8 | 
[V:4] C,2C,2D,2E,2 | 
[V:1] z8 | 
[V:2] e2dcB2c2- | 
[V:3] G4G2G2 | 
[V:4] C,4z2C,2 | 
[V:1] z4G4 | 
[V:2] c2d2B4 | 
[V:3] A2B2G3A | 
[V:4] F,2E,D,E,2G,2- | 
[V:1] G2G2A2B2 | 
[V:2] z2c2f2ed | 
[V:3] B2c4B2 | 
[V:4] G,2F,E,F,2G,2 | 
[V:1] G3AB2c2- | 
[V:2] e2g4fe | 
[V:3] c2e4dc | 
[V:4] C,4z4 | 
[V:1] c2B2c4 | 
[V:2] f2g3fed | 
[V:3] d4e2cd | 
[V:4] z2G,2C3B, | 
[V:1] z8 | 
[V:2] c2B2A4 | 
[V:3] efg4f2 | 
[V:4] A,2G,2C4 | 
[V:1] z2G2c3B | 
[V:2] G4z2c2 | 
[V:3] e2d2cBAG | 
[V:4] B,4z2C,2 | 
[V:1] A3GF2E2- | 
[V:2] c2c2d2e2 | 
[V:3] A2F4G2 | 
[V:4] F,3E,D,2C,2 | 
[V:1] E2D2E4 | 
[V:2] c3B/A/B4- | 
[V:3] A4G2g2- | 
[V:4] F,4E,4 | 
[V:1] z2c2c2c2 | 
[V:2] B2c2A4 | 
[V:3] gfe4dc | 
[V:4] z8 | 
[V:1] d2e2c3B/A/ | 
[V:2] G2g4^f2 | 
[V:3] B2c2A4 | 
[V:4] z8 | 
[V:1] B6c2 | 
[V:2] g3f/e/d2c2 | 
[V:3] G3ABGAB | 
[V:4] z4z2F,2 | 
[V:1] A4G2c2- | 
[V:2] f4e4 | 
[V:3] c4z2c2 | 
[V:4] F,2F,2G,2A,2 | 
[V:1] cBAGF2G2 | 
[V:2] A4z2c2- | 
[V:3] c2c2d2e2 | 
[V:4] F,4z2C,2 | 
[V:1] A4z2G2 | 
[V:2] cBAGA2c2 | 
[V:3] c2f4e2 | 
[V:4] F,3E,D,2C,2 | 
[V:1] G2G2A2B2 | 
[V:2] B4z2G2 | 
[V:3] d3c/B/A2d2- | 
[V:4] G,4F,2G,2 | 
[V:1] G4z2G2 | 
[V:2] G2G2A2B2 | 
[V:3] d2c2f2ed | 
[V:4] E,4D,2G,2 | 
[V:1] c3BA2G2- | 
[V:2] G2g2f2e2- | 
[V:3] e4z2G2 | 
[V:4] C,4D,2E,2 | 
[V:1] GFE4D2 | 
[V:2] edc4B2 | 
[V:3] G2G2A2B2 | 
[V:4] C,2E,2F,2G,2 | 
[V:1] E8 ||  
[V:2] c8 ||  
[V:3] G8 ||  
[V:4] C,8 ||  
[V:1]  [K:C] [K:clef=treble][M:2/1]z8 | 
[V:2]  [K:C] [K:clef=treble-8][M:2/1]G4d4 | 
[V:3]  [K:C] [K:clef=treble-8][M:2/1]z8 | 
[V:4]  [K:C] [K:clef=bass][M:2/1]z8 | 
[V:1] z8 | 
[V:2] e2g3fge | 
[V:3] z8 | 
[V:4] C,4G,4 | 
[V:1] z8 | 
[V:2] f2g2e4 | 
[V:3] z8 | 
[V:4] A,2C3B,CA, | 
[V:1] z2c4c2 | 
[V:2] d2e4dc | 
[V:3] z8 | 
[V:4] B,2C2A,4 | 
[V:1] B2A2c3B | 
[V:2] d2f4e2- | 
[V:3] z8 | 
[V:4] G,2F,G,A,B,C2- | 
[V:1] G2A2B2A2- | 
[V:2] edecdef2- | 
[V:3] z4z2c2- | 
[V:4] CB,A,2G,2F,2- | 
[V:1] AGG4^F2 | 
[V:2] fge2d4 | 
[V:3] c2c2B2A2 | 
[V:4] F,E,C,2D,4 | 
[V:1] G6E2 | 
[V:2] z2e3dg2 | 
[V:3] c3BG3A | 
[V:4] C,4z2C,2 | 
[V:1] D6C2 | 
[V:2] f3edcc2- | 
[V:3] B2A3GG2- | 
[V:4] D,2F,4E,2 | 
[V:1] D2F4E2 | 
[V:2] c2B2c3B | 
[V:3] G2F2G4 | 
[V:4] D,4C,4 | 
[V:1] D4C2G2 | 
[V:2] G2g2f2e2- | 
[V:3] z2G2A2c2- | 
[V:4] z8 | 
[V:1] A2G4^F2 | 
[V:2] edd4c2 | 
[V:3] c2B2A4 | 
[V:4] z2G,2A,2C2- | 
[V:1] G4z4 | 
[V:2] d4e4 | 
[V:3] G4z2c2 | 
[V:4] C2B,2A,4 | 
[V:1] z8 | 
[V:2] z4z2c2 | 
[V:3] d2f4e2 | 
[V:4] G,2D3CC2- | 
[V:1] z4z2c2 | 
[V:2] d2f4e2 | 
[V:3] d4c4 | 
[V:4] C2B,2A,4 | 
[V:1] d2f4e2 | 
[V:2] d4c2g2 | 
[V:3] B2AGABc2- | 
[V:4] D,3E,F,2C,2 | 
[V:1] d4c4- | 
[V:2] a2g4^f2 | 
[V:3] c2B2c4 | 
[V:4] F,2G,2A,4 | 
[V:1] c2B2A2G2- | 
[V:2] g4f2e2 | 
[V:3] d4z2c2 | 
[V:4] G,4z2C,2 | 
[V:1] G2F2G4 | 
[V:2] d4c4 | 
[V:3] B2A3Gc2- | 
[V:4] D,2F,4E,2 | 
[V:1] z4z2c2- | 
[V:2] d4e4- | 
[V:3] c2B2A4 | 
[V:4] D,4C,4- | 
[V:1] c2c2B2A2 | 
[V:2] e2dcdef2- | 
[V:3] G4z4 | 
[V:4] C,4z4 | 
[V:1] c3BG4- | 
[V:2] fee4dc | 
[V:3] z8 | 
[V:4] z2C4C2 | 
[V:1] G2C2E4 | 
[V:2] d2e3dc2- | 
[V:3] z4z2g2- | 
[V:4] B,2A,2C3B, | 
[V:1] D2d4c2- | 
[V:2] c2B2A4 | 
[V:3] g2g2f2e2 | 
[V:4] G,4z2C2- | 
[V:1] c2BAG2A2 | 
[V:2] e4z2c2- | 
[V:3] g3fd2e2- | 
[V:4] C2C2B,2A,2 | 
[V:1] E4z2c2- | 
[V:2] c2c2B2A2 | 
[V:3] edg4f2 | 
[V:4] C3B,G,2A,2- | 
[V:1] cBG4F2 | 
[V:2] c3BG2A2- | 
[V:3] e3dB2d2- | 
[V:4] A,G,E,4D,2 | 
[V:1] A4G4- | 
[V:2] AFf4e2 | 
[V:3] dcA2c4 | 
[V:4] F,3E,C,4 | 
[V:1] G4c4 | 
[V:2] d2g4^f2 | 
[V:3] B4c4 | 
[V:4] G,4A,4 | 
[V:1] B8 ||  
[V:2] g8 ||  
[V:3] d8 ||  
[V:4] G,8 ||  
[V:1]  [K:C] [K:clef=treble][M:2/1]z8 | 
[V:2]  [K:C] [K:clef=treble-8][M:2/1]g4g2g2 | 
[V:3]  [K:C] [K:clef=treble-8][M:2/1]z8 | 
[V:4]  [K:C] [K:clef=bass][M:2/1]z8 | 
[V:1] z8 | 
[V:2] d2f4ed | 
[V:3] z2d2d2d2 | 
[V:4] z8 | 
[V:1] z8 | 
[V:2] e4d4- | 
[V:3] A2c4BA | 
[V:4] z4G,4 | 
[V:1] z8 | 
[V:2] d4f3e | 
[V:3] B4A3G | 
[V:4] G,2G,2D,2F,2- | 
[V:1] z8 | 
[V:2] c2d2B2g2- | 
[V:3] A2B2G2e2- | 
[V:4] F,2E,D,E,4 | 
[V:1] z2G2G2G2 | 
[V:2] gfe4dc | 
[V:3] edc4B2 | 
[V:4] C,3D,E,F,G,2- | 
[V:1] D2F4ED | 
[V:2] B2c4B2 | 
[V:3] G2A2F4 | 
[V:4] G,2F,E,D,4 | 
[V:1] E4z2G2 | 
[V:2] c8 | 
[V:3] z2G2A2G2 | 
[V:4] C,8 | 
[V:1] A2G2c3B | 
[V:2] z2c2c2c2 | 
[V:3] c3BAGF2- | 
[V:4] z8 | 
[V:1] A2G2F2ED | 
[V:2] d2e2c3B | 
[V:3] F2E2FGAB | 
[V:4] z2G,2A,2C2- | 
[V:1] EFG3Cc2- | 
[V:2] A2G2z2c2 | 
[V:3] c2d2e4 | 
[V:4] C2B,2C4 | 
[V:1] c2BAB4- | 
[V:2] e2f2g4- | 
[V:3] c4z2d2 | 
[V:4] A,4G,3F, | 
[V:1] B2c2A4 | 
[V:2] g2fefedc | 
[V:3] e2c2d4 | 
[V:4] G,2A,2D,4 | 
[V:1] z2G2A3B | 
[V:2] B2e4d2 | 
[V:3] G2B2A4 | 
[V:4] E,4F,3E, | 
[V:1] cBcde2d2- | 
[V:2] e3fg4 | 
[V:3] z2G3AB2 | 
[V:4] C,4z2G,2 | 
[V:1] d2c4B2 | 
[V:2] z8 | 
[V:3] cBcde2d2- | 
[V:4] A,2F,2G,4 | 
[V:1] A2G2F3E/D/ | 
[V:2] z2G2A2B2 | 
[V:3] dcc4B2 | 
[V:4] C,2E,2D,4 | 
[V:1] E3FG2AB- | 
[V:2] cBcde2d2- | 
[V:3] AGg4f2 | 
[V:4] C,4z2D,2 | 
[V:1] BcA3GG2- | 
[V:2] dcc4B2 | 
[V:3] g2fed4- | 
[V:4] E,2F,2G,4 | 
[V:1] G2^F2G4 | 
[V:2] A2d4e2 | 
[V:3] d4G3A | 
[V:4] D,4z2G,2- | 
[V:1] z2E2F2D2 | 
[V:2] d2a4g2 | 
[V:3] B2c4B2 | 
[V:4] G,2A,2F,2G,2 | 
[V:1] E4G3A | 
[V:2] g4z4 | 
[V:3] cBcde2d2- | 
[V:4] C,4z2G,2- | 
[V:1] B2c4B2 | 
[V:2] z2e2f2d2 | 
[V:3] d2c2A2B2 | 
[V:4] G,2A,2F,2G,2 | 
[V:1] cBcde2d2- | 
[V:2] e4a4 | 
[V:3] G2z2e2fe | 
[V:4] C,2C4D2 | 
[V:1] d2c3BBA | 
[V:2] g8 | 
[V:3] dce2d4 | 
[V:4] B,2C2G,4 | 
[V:1] c8- | 
[V:2] g2a4gf | 
[V:3] c8- | 
[V:4] E,2F,4E,D, | 
[V:1] c8 |]  
[V:2] e8 |]  
[V:3] c8 |]  
[V:4] C,8 |]  



